X:31
T:Frant-ish
R:bourr\'ee (2-time)
M:2/4
L:1/8
C:composed by Chris Walshaw for Anna Pack
C:upon the occasion of her birthday with a zero in it
%%MIDI transpose -2
K:G
%e2>d2 c2d2 | efed c2e2 | _e2>d2 c2d2 | _e2f2 e2d2 | e2>d2 c2d2 | efed e2g2 | d8- | d8 :| 
%e2>d2 c2d2 | efed c2e2 | _e2>d2 c2d2 | _e2f2 e2d2 | e2>d2 c2d2 | efed e2g2 | d8- | d8 :| 
%e8- | e4 g2e2 | d8 - | d4 f2d2 | c8- | c4 d2c2 |1 B4 c4 | d4 e2f2 :|2 B4 A4 | G8 |]
G>A Bc | dB AG | E>F GA | BG FD | C>D EF | GF GA | BA Bc | A4 |
G>A Bc | dB AG | E>F GA | BG FD | C>D EF | GF GA | Bc AF | GF GA ||
Bd dB | dd cB | Ad dA | dA GF | EG GE | GG FE | F>E FG | A2GA | 
Bd dB | dd cB | Ad dA | d4 | e3 e- | e2 dc | d4-|d4 |]

